X:6
T:Doug Lamey's Jig
R:jig
C:Andrea Beaton
D:Andrea Beaton, Cuts
Z:Paul Stewart Cranford (P.S.C.), <http://www.cranfordpub.com>
L:1/8
M:6/8
Q:300
K:Amix
e|ABA Aed|edB ABA|G3 B2 d|ege dBG|
ABA Aed|edB Age|dge dBG|[1A3 A2:|[2A3  e/ f2 z/||
|:eaf g2 f|eaa {b}age|dBG G2 B|ege dcd|
eaf g2 f|eaa {b}age|dge dBG|[1A3  e/ f2 z/:|[2A3 A2|]
